icon/pk/error-picture.svg

<svg viewBox="0 0 48 48" fill="none" xmlns="http://www.w3.org/2000/svg" height="1em" width="1em">
  <path d="M44 23.9941C44 22.8896 43.1046 21.9941 42 21.9941C40.8954 21.9941 40 22.8896 40 23.9941H44ZM24 7.99414C25.1046 7.99414 26 7.09871 26 5.99414C26 4.88957 25.1046 3.99414 24 3.99414V7.99414ZM39 39.9941H9V43.9941H39V39.9941ZM8 38.9941V8.99414H4V38.9941H8ZM40 23.9941V38.9941H44V23.9941H40ZM9 7.99414H24V3.99414H9V7.99414ZM9 39.9941C8.44772 39.9941 8 39.5464 8 38.9941H4C4 41.7556 6.23857 43.9941 9 43.9941V39.9941ZM39 43.9941C41.7614 43.9941 44 41.7556 44 38.9941H40C40 39.5464 39.5523 39.9941 39 39.9941V43.9941ZM8 8.99414C8 8.44186 8.44771 7.99414 9 7.99414V3.99414C6.23858 3.99414 4 6.23272 4 8.99414H8Z" fill="black"/>
  <path d="M6 35L16.6931 25.198C17.4389 24.5143 18.5779 24.4953 19.3461 25.1538L32 36" stroke="black" stroke-width="4" stroke-linecap="round" stroke-linejoin="round"/>
  <path d="M28 31L32.7735 26.2265C33.4772 25.5228 34.5914 25.4436 35.3877 26.0408L42 31" stroke="black" stroke-width="4" stroke-linecap="round" stroke-linejoin="round"/>
  <path d="M33 7L41 15" stroke="black" stroke-width="4" stroke-linecap="round" stroke-linejoin="round"/>
  <path d="M41 7L33 15" stroke="black" stroke-width="4" stroke-linecap="round" stroke-linejoin="round"/>
</svg>

<svg width="48" height="48" fill="none" xmlns="http://www.w3.org/2000/svg"><path d="M44 23.994a2 2 0 0 0-4 0h4Zm-20-16a2 2 0 1 0 0-4v4Zm15 32H9v4h30v-4Zm-31-1v-30H4v30h4Zm32-15v15h4v-15h-4Zm-31-16h15v-4H9v4Zm0 32a1 1 0 0 1-1-1H4a5 5 0 0 0 5 5v-4Zm30 4a5 5 0 0 0 5-5h-4a1 1 0 0 1-1 1v4Zm-31-35a1 1 0 0 1 1-1v-4a5 5 0 0 0-5 5h4Z" fill="#000"/><path d="m6 35 10.693-9.802a2 2 0 0 1 2.653-.044L32 36M28 31l4.773-4.773a2 2 0 0 1 2.615-.186L42 31M33 7l8 8M41 7l-8 8" stroke="#000" stroke-width="4" stroke-linecap="round" stroke-linejoin="round"/></svg>
